Numix-GalliumOS/16/categories/preferences-system-network.svg

<?xml version="1.0" encoding="UTF-8" standalone="no"?>
<svg
   xmlns:dc="http://purl.org/dc/elements/1.1/"
   xmlns:cc="http://creativecommons.org/ns#"
   xmlns:rdf="http://www.w3.org/1999/02/22-rdf-syntax-ns#"
   xmlns:svg="http://www.w3.org/2000/svg"
   xmlns="http://www.w3.org/2000/svg"
   xmlns:sodipodi="http://sodipodi.sourceforge.net/DTD/sodipodi-0.dtd"
   xmlns:inkscape="http://www.inkscape.org/namespaces/inkscape"
   width="16"
   height="16"
   viewBox="0 0 16 16"
   id="svg2"
   version="1.1"
   inkscape:version="0.91 r"
   sodipodi:docname="preferences-system-network.svg">
  <metadata
     id="metadata18">
    <rdf:RDF>
      <cc:Work
         rdf:about="">
        <dc:format>image/svg+xml</dc:format>
        <dc:type
           rdf:resource="http://purl.org/dc/dcmitype/StillImage" />
        <dc:title />
      </cc:Work>
    </rdf:RDF>
  </metadata>
  <defs
     id="defs16" />
  <sodipodi:namedview
     pagecolor="#ffffff"
     bordercolor="#666666"
     borderopacity="1"
     objecttolerance="10"
     gridtolerance="10"
     guidetolerance="10"
     inkscape:pageopacity="0"
     inkscape:pageshadow="2"
     inkscape:window-width="1920"
     inkscape:window-height="1056"
     id="namedview14"
     showgrid="true"
     inkscape:zoom="7.3750001"
     inkscape:cx="-16.565377"
     inkscape:cy="-17.836966"
     inkscape:window-x="0"
     inkscape:window-y="24"
     inkscape:window-maximized="1"
     inkscape:current-layer="svg2">
    <inkscape:grid
       type="xygrid"
       id="grid4146" />
  </sodipodi:namedview>
  <path
     style="fill:#c0956e"
     inkscape:connector-curvature="0"
     id="path6"
     d="M 5.8356841,2.0000056 C 5.6522653,2.0216356 5.4981946,2.2064948 5.5000286,2.4031515 l 0,3.195669 C 5.5000286,5.8092432 5.6779443,6 5.8742015,6 l 4.2516305,0 c 0.196258,0 0.374173,-0.1907568 0.374173,-0.4011795 l 0,-3.195669 c 0,-0.2104227 -0.177915,-0.4031459 -0.374173,-0.4031459 z" />
  <path
     style="fill:#c0956e"
     inkscape:connector-curvature="0"
     id="path8"
     d="m 2.3355481,10.000006 c -0.1815174,0.01966 -0.3373655,0.204523 -0.3355321,0.403146 l 0,3.193702 C 2.000016,13.807276 2.1796995,14 2.3758851,14 l 4.2482384,0 c 0.1961852,0 0.3758694,-0.192724 0.3758694,-0.403146 l 0,-3.193702 c 0,-0.212389 -0.1796842,-0.403146 -0.3758694,-0.403146 z" />
  <path
     style="fill:#c0956e"
     inkscape:connector-curvature="0"
     id="path10"
     d="m 9.3373741,10.000006 c -0.183352,0.01966 -0.337367,0.204523 -0.337367,0.403146 l 0,3.193702 c 0,0.210422 0.179685,0.403146 0.37587,0.403146 l 4.2500859,0 C 13.822149,14 14,13.807276 14,13.596854 l 0,-3.193702 c 0,-0.212389 -0.177851,-0.403146 -0.374037,-0.403146 z" />
  <path
     style="fill:#c0956e"
     inkscape:connector-curvature="0"
     id="path12"
     d="M 7.5,6.5 7.5,7 4,7 l 0,1.9999986 1.0000128,0 0,-0.9999986 5.9999912,0 0,0.9999986 0.999996,0 L 12,7 8.5,7 8.5,6.5 Z"
     sodipodi:nodetypes="ccccccccccccc" />
</svg>

<svg xmlns="http://www.w3.org/2000/svg" viewBox="0 0 16 16">
 <path d="m 5.836 2 c -0.183 0.022 -0.337 0.206 -0.336 0.403 l 0 3.196 c 0 0.21 0.178 0.401 0.374 0.401 l 4.252 0 c 0.196 0 0.374 -0.191 0.374 -0.401 l 0 -3.196 c 0 -0.21 -0.178 -0.403 -0.374 -0.403 z" style="fill:#c0956e"/>
 <path d="m 2.336 10 c -0.182 0.02 -0.337 0.205 -0.336 0.403 l 0 3.194 c 0 0.21 0.18 0.403 0.376 0.403 l 4.248 0 c 0.196 0 0.376 -0.193 0.376 -0.403 l 0 -3.194 c 0 -0.212 -0.18 -0.403 -0.376 -0.403 z" style="fill:#c0956e"/>
 <path d="m 9.337 10 c -0.183 0.02 -0.337 0.205 -0.337 0.403 l 0 3.194 c 0 0.21 0.18 0.403 0.376 0.403 l 4.25 0 c 0.196 0 0.374 -0.193 0.374 -0.403 l 0 -3.194 c 0 -0.212 -0.178 -0.403 -0.374 -0.403 z" style="fill:#c0956e"/>
 <path d="m 7.5 6.5 0 0.5 -3.5 0 l 0 2 1 0 0 -1 6 0 0 1 1 0 l 0 -2 -3.5 0 0 -0.5" style="fill:#c0956e"/>
</svg>
